svg/white/wicc.svg

<svg width="32" height="32" viewBox="0 0 32 32" version="1.1" xmlns="http://www.w3.org/2000/svg" xmlns:xlink="http://www.w3.org/1999/xlink"><title>svg/white/wicc</title><desc>Created with Sketch.</desc><g id="white/wicc" stroke="none" stroke-width="1" fill="none" fill-rule="evenodd"><path d="M16,32 C7.163444,32 0,24.836556 0,16 C0,7.163444 7.163444,0 16,0 C24.836556,0 32,7.163444 32,16 C32,24.836556 24.836556,32 16,32 Z M15.24,4 C9.13324126,4.40874288 4.30098471,9.32698264 4,15.44 L4,16.56 C4.29057414,22.7384743 9.22258136,27.6877868 15.4,28 L16.58,28 C19.5151574,27.8540532 22.2929479,26.6289764 24.38,24.56 C26.4381742,22.522489 27.664425,19.791942 27.82,16.9 L27.86,15.66 C27.8767911,15.4311224 27.7075994,15.2307828 27.4791405,15.2090248 C27.2506816,15.1872668 27.0467146,15.3520675 27.02,15.58 C26.9699976,16.3283216 26.8562519,17.0710139 26.68,17.8 C25.9039152,21.519365 23.2305081,24.5573275 19.64,25.8 C15.2061606,27.3440261 10.286172,25.756958 7.59034062,21.9130743 C4.89450925,18.0691906 5.07810938,12.9028221 8.04,9.26 C11.7089225,4.80152054 18.2463779,4.04176222 22.84,7.54 C23.1,7.72 23.36,8.02 23.7,7.94 C24.1,7.8 24.1,7.26 23.76,7.04 C21.7637722,5.20609121 19.1876116,4.13033186 16.48,4 L15.24,4 Z M25,10.22 L25.02,10.22 C24.48,10.7 24.6,11.46 24.7,12.1 C23.8,14.04 22.46,15.74 21,17.28 L20.4,17.32 C19.8038836,16.6803726 19.311285,15.9515967 18.94,15.16 C19.18,14.58 19.32,13.86 18.9,13.32 C18.34,12.44 16.9,12.46 16.36,13.34 C16,13.84 16.1,14.46 16.26,15 C15.4111811,16.8402235 14.2393091,18.5133587 12.8,19.94 C11.4758755,18.3605432 10.4155548,16.5775835 9.66,14.66 C10.12,13.84 9.86,12.64 8.92,12.3 C7.86,11.8 6.58,12.88 6.84,14 C6.94,14.82 7.76,15.28 8.54,15.32 C9.78380966,16.8869282 10.7695427,18.6423432 11.46,20.52 C11.22,21.14 11.16,21.88 11.62,22.4 C12.24,23.16 13.56,23.08 14.06,22.26 C14.44,21.78 14.34,21.14 14.2,20.6 C15.0207832,18.8261487 16.1065263,17.1874185 17.42,15.74 L18.02,15.72 C18.6327551,16.3472587 19.1393735,17.0700343 19.52,17.86 C19.26,18.48 19.12,19.26 19.62,19.82 C20.3,20.7 21.86,20.48 22.22,19.42 C22.52,18.88 22.04,18.2 22.42,17.68 C23.36,15.94 24.46,14.28 25.84,12.88 C26.88,12.96 27.9,12.06 27.64,11 C27.46,9.82 25.8,9.34 25,10.22 Z" id="Combined-Shape" fill="#FFF" fill-rule="nonzero"/></g></svg>

<svg width="32" height="32" viewBox="0 0 32 32" xmlns="http://www.w3.org/2000/svg"><path d="M16 32C7.163 32 0 24.837 0 16S7.163 0 16 0s16 7.163 16 16-7.163 16-16 16zm-.76-28A12.06 12.06 0 0 0 4 15.44v1.12A12.02 12.02 0 0 0 15.4 28h1.18a11.92 11.92 0 0 0 7.8-3.44 11.66 11.66 0 0 0 3.44-7.66l.04-1.24a.422.422 0 0 0-.84-.08c-.05.748-.164 1.491-.34 2.22a10.8 10.8 0 0 1-7.04 8A10.5 10.5 0 0 1 8.04 9.26a10.74 10.74 0 0 1 14.8-1.72c.26.18.52.48.86.4.4-.14.4-.68.06-.9A11.584 11.584 0 0 0 16.48 4h-1.24zM25 10.22h.02c-.54.48-.42 1.24-.32 1.88-.9 1.94-2.24 3.64-3.7 5.18l-.6.04a8.4 8.4 0 0 1-1.46-2.16c.24-.58.38-1.3-.04-1.84-.56-.88-2-.86-2.54.02-.36.5-.26 1.12-.1 1.66a16.954 16.954 0 0 1-3.46 4.94 19.14 19.14 0 0 1-3.14-5.28c.46-.82.2-2.02-.74-2.36-1.06-.5-2.34.58-2.08 1.7.1.82.92 1.28 1.7 1.32a18.8 18.8 0 0 1 2.92 5.2c-.24.62-.3 1.36.16 1.88.62.76 1.94.68 2.44-.14.38-.48.28-1.12.14-1.66a19.28 19.28 0 0 1 3.22-4.86l.6-.02a8.084 8.084 0 0 1 1.5 2.14c-.26.62-.4 1.4.1 1.96.68.88 2.24.66 2.6-.4.3-.54-.18-1.22.2-1.74.94-1.74 2.04-3.4 3.42-4.8 1.04.08 2.06-.82 1.8-1.88-.18-1.18-1.84-1.66-2.64-.78z" fill="#FFF"/></svg>
